symbols/web/settings_input_antenna/materialsymbolsrounded/settings_input_antenna_wght100gradN25_20px.svg

<svg xmlns="http://www.w3.org/2000/svg" height="20" width="20"><path d="m10 15.271-2.271 2.271q-.083.104-.187.104t-.23-.125q-.104-.104-.104-.209 0-.104.104-.208l2.396-2.396V11.5q-.583-.146-.927-.562-.343-.417-.343-.98 0-.625.468-1.093.469-.469 1.094-.469.646 0 1.115.469.468.468.468 1.093 0 .563-.354.98-.354.416-.917.562v3.208l2.417 2.396q.083.104.083.208 0 .105-.104.209-.125.125-.218.125-.094 0-.219-.125Zm0-9.146q-1.479 0-2.573.979-1.094.979-1.219 2.479-.041.146-.125.25-.083.105-.187.105-.125 0-.24-.084-.114-.083-.094-.208.105-1.75 1.386-2.938Q8.229 5.521 10 5.521q1.771 0 3.062 1.187 1.292 1.188 1.396 2.917.021.125-.104.219t-.229.094q-.104 0-.198-.105-.094-.104-.115-.25-.124-1.5-1.218-2.479Q11.5 6.125 10 6.125Zm0-3.396q-2.875 0-4.948 1.99-2.073 1.989-2.26 4.864.02.125-.084.24-.104.115-.208.115-.146 0-.229-.084-.083-.083-.083-.208.083-1.563.75-2.948.666-1.386 1.708-2.396 1.042-1.01 2.416-1.594Q8.438 2.125 10 2.125q1.562 0 2.938.594 1.374.593 2.416 1.583 1.042.99 1.708 2.375.667 1.385.771 2.948 0 .125-.093.219-.094.094-.219.094-.104 0-.209-.115-.104-.115-.104-.24-.187-2.875-2.26-4.864-2.073-1.99-4.948-1.99Z"/></svg>

<svg xmlns="http://www.w3.org/2000/svg" height="20" width="20"><path d="M10 15.271 7.729 17.542Q7.646 17.646 7.542 17.646Q7.438 17.646 7.312 17.521Q7.208 17.417 7.208 17.312Q7.208 17.208 7.312 17.104L9.708 14.708V11.5Q9.125 11.354 8.781 10.938Q8.438 10.521 8.438 9.958Q8.438 9.333 8.906 8.865Q9.375 8.396 10 8.396Q10.646 8.396 11.115 8.865Q11.583 9.333 11.583 9.958Q11.583 10.521 11.229 10.938Q10.875 11.354 10.312 11.5V14.708L12.729 17.104Q12.812 17.208 12.812 17.312Q12.812 17.417 12.708 17.521Q12.583 17.646 12.49 17.646Q12.396 17.646 12.271 17.521ZM10 6.125Q8.521 6.125 7.427 7.104Q6.333 8.083 6.208 9.583Q6.167 9.729 6.083 9.833Q6 9.938 5.896 9.938Q5.771 9.938 5.656 9.854Q5.542 9.771 5.562 9.646Q5.667 7.896 6.948 6.708Q8.229 5.521 10 5.521Q11.771 5.521 13.062 6.708Q14.354 7.896 14.458 9.625Q14.479 9.75 14.354 9.844Q14.229 9.938 14.125 9.938Q14.021 9.938 13.927 9.833Q13.833 9.729 13.812 9.583Q13.688 8.083 12.594 7.104Q11.5 6.125 10 6.125ZM10 2.729Q7.125 2.729 5.052 4.719Q2.979 6.708 2.792 9.583Q2.812 9.708 2.708 9.823Q2.604 9.938 2.5 9.938Q2.354 9.938 2.271 9.854Q2.188 9.771 2.188 9.646Q2.271 8.083 2.938 6.698Q3.604 5.312 4.646 4.302Q5.688 3.292 7.062 2.708Q8.438 2.125 10 2.125Q11.562 2.125 12.938 2.719Q14.312 3.312 15.354 4.302Q16.396 5.292 17.062 6.677Q17.729 8.062 17.833 9.625Q17.833 9.75 17.74 9.844Q17.646 9.938 17.521 9.938Q17.417 9.938 17.312 9.823Q17.208 9.708 17.208 9.583Q17.021 6.708 14.948 4.719Q12.875 2.729 10 2.729Z"/></svg>
